src/frontend/src/assets/imgs/previewDark.svg

<?xml version="1.0"?>
<svg xmlns="http://www.w3.org/2000/svg" width="266" height="157" viewBox="0 0 266 157" fill="#121113">
<circle cx="133" cy="79" r="20" fill="#121113"/>
<path fill-rule="evenodd" clip-rule="evenodd" d="M9.58067 78.75C132.449 226.211 238.449 102.486 256.721 78.75C238.449 55.0139 132.449 -68.711 9.58067 78.75ZM132.5 134C163.152 134 188 109.152 188 78.5C188 47.8482 163.152 23 132.5 23C101.848 23 77 47.8482 77 78.5C77 109.152 101.848 134 132.5 134Z" fill="#121113"/>
<path d="M9.58067 78.75L4.20284 74.2691L0.469182 78.75L4.20284 83.231L9.58067 78.75ZM256.721 78.75L262.268 83.02L265.555 78.75L262.268 74.48L256.721 78.75ZM9.58067 78.75L14.9585 83.231L18.6922 78.75L14.9585 74.2691L9.58067 78.75ZM256.721 78.75L251.174 74.48L247.887 78.75L251.174 83.02L256.721 78.75ZM4.20284 83.231C35.5334 120.832 66.2491 141.695 95.336 150.967C124.493 160.262 151.405 157.713 174.689 149.555C220.834 133.388 252.944 95.1317 262.268 83.02L251.174 74.48C242.225 86.1045 212.199 121.579 170.06 136.343C149.202 143.65 125.433 145.867 99.588 137.629C73.6723 129.368 45.0623 110.398 14.9585 74.2691L4.20284 83.231ZM262.268 74.48C252.944 62.3684 220.834 24.1122 174.689 7.94483C151.405 -0.212996 124.493 -2.76186 95.336 6.53267C66.2491 15.8047 35.5334 36.6677 4.20284 74.2691L14.9585 83.231C45.0623 47.1019 73.6723 28.1325 99.588 19.8714C125.433 11.6326 149.202 13.8496 170.06 21.1574C212.199 35.9212 242.225 71.3955 251.174 83.02L262.268 74.48ZM181 78.5C181 105.286 159.286 127 132.5 127V141C167.018 141 195 113.018 195 78.5H181ZM132.5 30C159.286 30 181 51.7142 181 78.5H195C195 43.9822 167.018 16 132.5 16V30ZM84 78.5C84 51.7142 105.714 30 132.5 30V16C97.9822 16 70 43.9822 70 78.5H84ZM132.5 127C105.714 127 84 105.286 84 78.5H70C70 113.018 97.9822 141 132.5 141V127ZM1.06079 79.4063C2.10888 80.7001 3.15624 81.9749 4.20285 83.231L14.9585 74.2691C13.9536 73.0631 12.9472 71.8381 11.9392 70.5938L1.06079 79.4063ZM262.268 83.02C263.223 81.7795 263.955 80.7916 264.456 80.103C264.707 79.7588 264.9 79.4892 265.034 79.3003C265.1 79.2058 265.153 79.1315 265.19 79.078C265.209 79.0513 265.224 79.0298 265.235 79.0135C265.241 79.0054 265.246 78.9987 265.249 78.9932C265.251 78.9905 265.253 78.9881 265.254 78.9861C265.255 78.985 265.256 78.9841 265.256 78.9832C265.256 78.9828 265.257 78.9824 265.257 78.982C265.257 78.9818 265.257 78.9816 265.257 78.9815C265.258 78.9812 265.258 78.9809 259.5 75C253.742 71.0191 253.742 71.0189 253.743 71.0186C253.743 71.0186 253.743 71.0183 253.743 71.0182C253.743 71.0179 253.743 71.0176 253.743 71.0173C253.744 71.0168 253.744 71.0164 253.744 71.016C253.745 71.0153 253.745 71.0149 253.745 71.0149C253.745 71.0148 253.744 71.016 253.743 71.0186C253.739 71.0236 253.732 71.034 253.721 71.0494C253.699 71.0804 253.663 71.132 253.612 71.2035C253.511 71.3464 253.352 71.5689 253.136 71.8651C252.705 72.4576 252.048 73.3446 251.174 74.48L262.268 83.02ZM11.9392 86.9063C12.9472 85.662 13.9536 84.437 14.9585 83.231L4.20285 74.2691C3.15624 75.5252 2.10888 76.8 1.06079 78.0938L11.9392 86.9063ZM251.174 83.02C252.048 84.1555 252.705 85.0425 253.136 85.635C253.352 85.9312 253.511 86.1537 253.612 86.2966C253.663 86.3681 253.699 86.4197 253.721 86.4506C253.732 86.4661 253.739 86.4764 253.743 86.4815C253.744 86.4841 253.745 86.4853 253.745 86.4852C253.745 86.4851 253.745 86.4848 253.744 86.4841C253.744 86.4837 253.744 86.4833 253.743 86.4827C253.743 86.4825 253.743 86.4822 253.743 86.4819C253.743 86.4818 253.743 86.4815 253.743 86.4814C253.742 86.4812 253.742 86.4809 259.5 82.5C265.258 78.5191 265.258 78.5189 265.257 78.5186C265.257 78.5185 265.257 78.5182 265.257 78.518C265.257 78.5177 265.256 78.5173 265.256 78.5168C265.256 78.516 265.255 78.515 265.254 78.514C265.253 78.512 265.251 78.5096 265.249 78.5069C265.246 78.5014 265.241 78.4946 265.235 78.4865C265.224 78.4703 265.209 78.4488 265.19 78.4221C265.153 78.3686 265.1 78.2943 265.034 78.1998C264.9 78.0109 264.707 77.7413 264.456 77.397C263.955 76.7085 263.223 75.7205 262.268 74.48L251.174 83.02Z" fill="#121113"/>
</svg>

<svg xmlns="http://www.w3.org/2000/svg" width="266" height="157" fill="#121113" xmlns:v="https://vecta.io/nano"><circle cx="133" cy="79" r="20"/><path fill-rule="evenodd" d="M9.581 78.75c122.868 147.461 228.868 23.736 247.14 0-18.272-23.736-124.272-147.461-247.14 0zM132.5 134c30.652 0 55.5-24.848 55.5-55.5S163.152 23 132.5 23 77 47.848 77 78.5s24.848 55.5 55.5 55.5z"/><path d="M9.581 78.75l-5.378-4.481L.469 78.75l3.734 4.481 5.378-4.481zm247.14 0l5.547 4.27 3.287-4.27-3.287-4.27-5.547 4.27zm-247.14 0l5.378 4.481 3.734-4.481-3.734-4.481-5.378 4.481zm247.14 0l-5.547-4.27-3.287 4.27 3.287 4.27 5.547-4.27zM4.203 83.231c31.331 37.601 62.046 58.464 91.133 67.736 29.157 9.295 56.069 6.746 79.353-1.412 46.145-16.167 78.255-54.423 87.579-66.535l-11.094-8.54c-8.949 11.624-38.975 47.099-81.114 61.863-20.858 7.307-44.627 9.524-70.472 1.286-25.916-8.261-54.526-27.231-84.629-63.36L4.203 83.231zm258.065-8.751c-9.324-12.112-41.434-50.368-87.579-66.535-23.284-8.158-50.196-10.707-79.353-1.412-29.087 9.272-59.803 30.135-91.133 67.736l10.756 8.962c30.104-36.129 58.714-55.098 84.63-63.36 25.845-8.239 49.614-6.022 70.472 1.286 42.139 14.764 72.165 50.238 81.114 61.863l11.094-8.54zM181 78.5c0 26.786-21.714 48.5-48.5 48.5v14c34.518 0 62.5-27.982 62.5-62.5h-14zM132.5 30c26.786 0 48.5 21.714 48.5 48.5h14c0-34.518-27.982-62.5-62.5-62.5v14zM84 78.5C84 51.714 105.714 30 132.5 30V16C97.982 16 70 43.982 70 78.5h14zm48.5 48.5C105.714 127 84 105.286 84 78.5H70c0 34.518 27.982 62.5 62.5 62.5v-14zM1.061 79.406l3.142 3.825 10.756-8.962-3.019-3.675-10.878 8.813zm261.207 3.614l2.188-2.917.578-.803.156-.222.045-.065c.006-.008.011-.015.014-.02.009-.012.009-.012-5.749-3.993l-5.757-3.981c-.004.005-.011.015-.022.031l-.109.154-.476.662-1.962 2.615 11.094 8.54zM11.939 86.906l3.019-3.675-10.756-8.962-3.142 3.825 10.878 8.813zm239.235-3.886l1.962 2.615.476.662.109.154.022.031c-.001 0-.001-.001 5.757-3.981l5.757-3.981c-.011-.017-.016-.024-.022-.032l-.045-.064-.156-.222-.578-.803-2.188-2.917-11.094 8.54z"/></svg>
